X: 41540
T: Under The Table
R: polka
M: 2/4
K: Dmajor
|:A2 d>c|BA AF|A/B/d FD|FE EF|
A2 d>c|BA Ad|f/g/a eg|1 fd dB:|2 fd df||
|:aA ga/g/|fd de/f/|gf ed|fe ef/g/|
aA ga/g/|fd de/f/|g/f/e ce|1 ed de/f/:|2 ed d2||

